X: 190
P: Longways for as many as will
M: 3/4
L: 1/8
K: D
|:\
|:\
d2 defg | g2 ag f2 | g2 gf e2 | f4 e2 |\
fg a2 gf | ef g2 fe | de e4 | d6 :|

